!!!COM: Bach, Johann Sebastian
!!!CDT: 1685/3//-1750/7/28/
!!!OTL@@DE: Erstanden ist der heil'ge Christ
!!!AGN: 4-Part Chorale
!!!SCT: BH 176
!!!SCT: BWV 306
!!!YEC: Copyright 1994, David Huron
!!!YEC: Changes/Additions 2001 by Craig Stuart Sapp
!!!YEN: United States of America
!!!SMA: 371 Bach Chorales, edited by Ludwig Erk, C.F. Peters
!!!PDT: 1850, 1865
!!!ONB: Harmony and Root analysis done manually
**kern	**kern	**kern	**kern	**root	**harm
!bass	!tenor	!alto	!soprno	!	!
*Iorgan	*Iorgan	*Iorgan	*Iorgan	*Iorgan	*
*M3/4	*M3/4	*M3/4	*M3/4	*M3/4	*M3/4
*MM60	*MM60	*MM60	*MM60	*MM60	*MM60
*k[b-]	*k[b-]	*k[b-]	*k[b-]	*k[b-]	*k[b-]
*F:	*F:	*F:	*F:	*F:	*F:
4FF	4A	4c	4f	4FF	I
=1	=1	=1	=1	=1	=1
4.F	8A	4c	4.f	4.FF	I
.	8B-	.	.	.	.
.	8A	8d	.	.	.
8E	8G	8e	8g	8EE	vii
4D	4F	[4f	8a	4DD	vi
.	.	.	8b-	.	.
=2	=2	=2	=2	=2	=2
4.C	2G	4f]	2cc	2CC	V
.	.	8e	.	.	.
8D	.	8f	.	.	.
8E	4c	[4g	4g	4CC	Vb
8C	.	.	.	.	.
=3	=3	=3	=3	=3	=3
4.F	2c	8g]	2a	2FF	I
.	.	8e	.	.	.
.	.	[2f	.	.	.
8E	.	.	.	.	.
4D	4d	.	4bn	4BB	viib/V
=4	=4	=4	=4	=4	=4
2C;	2G;	4f]	2cc;	2CC;	V;
.	.	4e;	.	.	.
4E	4c	[4g	4b-y	4CC	V7b
=5	=5	=5	=5	=5	=5
4.F	8c	4g]	4.a	4FF	I
.	8A	.	.	.	.
.	2d	2f	.	4DD	vib
8E	.	.	8g	.	.
4D	.	.	8a	4DD	vi
.	.	.	8b-	.	.
=6	=6	=6	=6	=6	=6
4.E	8c	8g	2cc	4CC	Vb
.	8d	8f	.	.	.
.	4e	8g	.	8CC	Vb
8F#	.	[8a	.	8FF#	vii7/ii
4G	4d	8a]	4b-	4GG	ii
.	.	[8g	.	.	.
=7	=7	=7	=7	=7	=7
4.D	4d	8g]	2a	4DD	vi
.	.	16f	.	.	.
.	.	16e	.	.	.
.	4A	[4f	.	4DD	vi
8C	.	.	.	.	.
4BB-	4D	8f]	4g	4EE	v7c/III
.	.	16e	.	.	.
.	.	16d	.	.	.
!!linebreak: 2
=8	=8	=8	=8	=8	=8
2AA;	2E;	2c#;	2a;	2AA;	III;
4D	4F	4d	4a	4DD	vi
=9	=9	=9	=9	=9	=9
8A	4A	4.e	2cc	4AA	iii
8AA	.	.	.	.	.
8A	[2c	.	.	4AA	iii
8G	.	8f	.	.	.
8F	.	[4g	4b-	4CC	V7b
8E	.	.	.	.	.
=10	=10	=10	=10	=10	=10
8F	8c]	4g]	2a	4FF	I
8FF	8A	.	.	.	.
8F	8d	4f	.	4DD	vib
8E	8c	.	.	.	.
8D	4B-	[4e	4g	4CC#	viioD7/vi
8C#	.	.	.	.	.
=11	=11	=11	=11	=11	=11
4D	8A	4e]	2f	4DD	vi
.	8F	.	.	.	.
4BB-	8B-	4d	.	4BB-	IV
.	8A	.	.	.	.
4Cn	4G	8c	4e	4CC	V
.	.	8B-	.	.	.
=12	=12	=12	=12	=12	=12
2D;	2F;	2A;	2f;	2DD;	vi;
8D	4A	4d	4f	4DD	vi
8C	.	.	.	.	.
=13	=13	=13	=13	=13	=13
4.BB-	4G	4d	8g	4GG	iib
.	.	.	8f	.	.
.	4c	8e	8g	8CC	V7d
8AA	.	8f	8a	8FF	Ib
!!!ONB1: in beat 3 of measure 13, the tenor pitch is 'd' in
!!!ONB2: Breitkof & Haertel editions, but is 'B-' in the
!!!ONB3: Bach Compendium index incipit.
4GG	8B-	8d	4b-	4GG	ii
.	8G	8e	.	.	.
=14	=14	=14	=14	=14	=14
8FF	8A	2f	2a	4FF	I
8GG	8B-	.	.	.	.
8AA	[4c	.	.	4FF	Ib
8BB-	.	.	.	.	.
4C	8c]	[4e	4g	4CC	V
.	8B-	.	.	.	.
=15	=15	=15	=15	=15	=15
8D	4A	4e]	2f	4DD	vi
8C	.	.	.	.	.
4BB-	8B-	4d	.	4BB-	IV
.	8A	.	.	.	.
4C	8G	4c	4e	4CC	V7
.	8B-	.	.	.	.
=16	=16	=16	=16	=16	=16
2FF;	2A;	2c;	2f;	2FF;	I;
==	==	==	==	==	==
*-	*-	*-	*-	*-	*-
!!chor2scor: -l 2 -s 0.6 -o %b.pmx
